en/_assets/datasphere/jupyterlab/delete-red.svg

<svg width="14" height="15" viewBox="0 0 14 15" fill="none" xmlns="http://www.w3.org/2000/svg">
<path fill-rule="evenodd" clip-rule="evenodd" d="M7.99996 2H5.99996C5.72381 2 5.49996 2.22386 5.49996 2.5V3H8.49996V2.5C8.49996 2.22386 8.2761 2 7.99996 2ZM9.99996 3V2.5C9.99996 1.39543 9.10453 0.5 7.99996 0.5H5.99996C4.89539 0.5 3.99996 1.39543 3.99996 2.5V3H3.00117H1.49987H1.25C0.835787 3 0.5 3.33579 0.5 3.75C0.5 4.16421 0.835787 4.5 1.25 4.5H1.56237L1.88007 12.1249C1.94703 13.7318 3.2692 15 4.87747 15H9.12226C10.7305 15 12.0527 13.7318 12.1197 12.1249L12.4374 4.5H12.75C13.1642 4.5 13.5 4.16421 13.5 3.75C13.5 3.33579 13.1642 3 12.75 3H12.4999H10.9986H9.99996ZM10.9361 4.5H9.99996H8.49996H5.49996H3.99996H3.06367L3.37877 12.0624C3.41225 12.8659 4.07333 13.5 4.87747 13.5H9.12226C9.9264 13.5 10.5875 12.8659 10.621 12.0624L10.9361 4.5ZM4.74976 6.5V11.5C4.74976 11.9142 5.08554 12.25 5.49976 12.25C5.91397 12.25 6.24976 11.9142 6.24976 11.5V6.5C6.24976 6.08579 5.91397 5.75 5.49976 5.75C5.08554 5.75 4.74976 6.08579 4.74976 6.5ZM8.49976 5.75C8.91397 5.75 9.24976 6.08579 9.24976 6.5V11.5C9.24976 11.9142 8.91397 12.25 8.49976 12.25C8.08554 12.25 7.74976 11.9142 7.74976 11.5V6.5C7.74976 6.08579 8.08554 5.75 8.49976 5.75Z" fill="#EA0805"/>
</svg>

<svg xmlns="http://www.w3.org/2000/svg" width="14" height="15" fill="none" viewBox="0 0 14 15">
    <path fill="#EA0805" fill-rule="evenodd" d="M8 2H6a.5.5 0 0 0-.5.5V3h3v-.5A.5.5 0 0 0 8 2Zm2 1v-.5a2 2 0 0 0-2-2H6a2 2 0 0 0-2 2V3H1.25a.75.75 0 0 0 0 1.5h.312l.318 7.625A3 3 0 0 0 4.877 15h4.245a3 3 0 0 0 2.998-2.875l.317-7.625h.313a.75.75 0 0 0 0-1.5H10Zm.936 1.5H3.064l.315 7.562A1.5 1.5 0 0 0 4.877 13.5h4.245a1.5 1.5 0 0 0 1.499-1.438l.315-7.562Zm-6.186 2v5a.75.75 0 0 0 1.5 0v-5a.75.75 0 0 0-1.5 0Zm3.75-.75a.75.75 0 0 1 .75.75v5a.75.75 0 0 1-1.5 0v-5a.75.75 0 0 1 .75-.75Z" clip-rule="evenodd"/>
</svg>
